packages/kaspersky-hexa-ui-icons/src/iconsSVGs/24/IdentityCard.svg

<svg width="24" height="24" viewBox="0 0 24 24" fill="none" xmlns="http://www.w3.org/2000/svg">
<path fill-rule="evenodd" clip-rule="evenodd" d="M9.96777 12C11.6424 12 13 13.3576 13 15.0322C13 16.119 12.119 17 11.0322 17H6.96777C5.88102 17 5 16.119 5 15.0322C5.00002 13.3576 6.35758 12 8.03223 12H9.96777ZM8.03223 14C7.47295 14 7.01902 14.4449 7.00195 15H10.998C10.981 14.4449 10.5271 14 9.96777 14H8.03223Z" fill="black"/>
<path d="M17 10C17.5523 10 18 10.4477 18 11C18 11.5523 17.5523 12 17 12H14C13.4477 12 13 11.5523 13 11C13 10.4477 13.4477 10 14 10H17Z" fill="black"/>
<path d="M9 7C10.1046 7 11 7.89543 11 9C11 10.1046 10.1046 11 9 11C7.89543 11 7 10.1046 7 9C7 7.89543 7.89543 7 9 7Z" fill="black"/>
<path d="M17 7C17.5523 7 18 7.44772 18 8C18 8.55228 17.5523 9 17 9H14C13.4477 9 13 8.55228 13 8C13 7.44772 13.4477 7 14 7H17Z" fill="black"/>
<path fill-rule="evenodd" clip-rule="evenodd" d="M18 3C20.2091 3 22 4.79086 22 7V17C22 19.2091 20.2091 21 18 21H6C3.79086 21 2 19.2091 2 17V7C2 4.79086 3.79086 3 6 3H18ZM6 5C4.89543 5 4 5.89543 4 7V17C4 18.1046 4.89543 19 6 19H18C19.1046 19 20 18.1046 20 17V7C20 5.89543 19.1046 5 18 5H6Z" fill="black"/>
</svg>

<svg xmlns="http://www.w3.org/2000/svg" width="24" height="24" fill="none" viewBox="0 0 24 24"><path fill="#000" fill-rule="evenodd" d="M18 3c2.2091 0 4 1.7909 4 4v10c0 2.2091-1.7909 4-4 4H6c-2.2091 0-4-1.7909-4-4V7c0-2.2091 1.7909-4 4-4zM6 5c-1.1046 0-2 .8954-2 2v10c0 1.1046.8954 2 2 2h12c1.1046 0 2-.8954 2-2V7c0-1.1046-.8954-2-2-2zm11 2c.5523 0 1 .4477 1 1s-.4477 1-1 1h-3c-.5523 0-1-.4477-1-1s.4477-1 1-1zm-6 2c0-1.1046-.8954-2-2-2s-2 .8954-2 2 .8954 2 2 2 2-.8954 2-2m7 2c0-.5523-.4477-1-1-1h-3c-.5523 0-1 .4477-1 1s.4477 1 1 1h3c.5523 0 1-.4477 1-1m-8.0322 1C11.6424 12 13 13.3576 13 15.0322 13 16.119 12.119 17 11.0322 17H6.9678C5.881 17 5 16.119 5 15.0322 5 13.3576 6.3576 12 8.0322 12zm-1.9356 2c-.5593 0-1.0132.4449-1.0302 1h3.996c-.017-.5551-.4709-1-1.0302-1z"/></svg>
